X: 21022
T: The BLUE BELL OF SCOTLAND
Q: "Slow."
%R air, march
B: W. Hamilton "Universal Tune-Book" Vol. 2 Glasgow 1846 p.102 #2
S: http://s3-eu-west-1.amazonaws.com/itma.dl.printmaterial/book_pdfs/hamiltonvol2web.pdf
Z: 2016 John Chambers <jc:trillian.mit.edu>
M: C
L: 1/16
K: G
% - - - - - - - - - - - - - - - - - - - - - - - - -
% Voice 1 formatted for compact staff layout.
V: 1 staves=2
g2 |\
g4 f2e2 d4 e2(fg) |\
B2B2 {d}c2A2 G4 z2g2 |\
g4 f2e2 d4 e2(fg) |\
B2B2 {d}c2A2 G4 z2 |]
(dc) |\
B2G2B2d2 g4 (3(e2f2g2) |\
f3d e3^c Hd2(^d2e2f2) |\
g3f (agf).e d4 (dce.c) |\
B2B2 {d}c2A2 G4 z2 |]
% - - - - - - - - - - - - - - - - - - - - - - - - -
% Voice 2 preserves the original staff layout.
V: 2
B2 |\
B2e2d2c2 B2G2 c2(AB) |\
(G2^G2) A2(FD) (Gg)fe (dc)BA |\
z(GBe) d2c2 (cB)(BA) (Gc/B/) AB |
(GD)(GD) (AD)(FD) (Gd/c/) Bd G2 |]\
z2 |\
G2z2 G2z2 zB(ed) (^cBc)(A |\
d)(AB)(F G)EAA HD2z2 z4 |
zB(e^d) (fe=d).c (B^A)B.^G (B=Ac).A |\
G(^DE)(^G A=D/)E/ FD (B/g/f/e/ d/c/)B/A/ G2 |]
% - - - - - - - - - - - - - - - - - - - - - - - - -

%%sep 1 1 500
%%sep 1 1 500

